korla/apps/scalable/khotkeys.svg

<svg width="48" height="48" xmlns="http://www.w3.org/2000/svg">
 <rect x="4" y="5" width="40" height="40" rx="12" opacity=".2"/>
 <rect x="4" y="4" width="40" height="40" rx="12" fill="#ff6363"/>
 <path d="m15 33-7.4921875 7.492188c2.169 2.168999 5.1681875 3.507812 8.4921875 3.507812h16c3.324 0 6.323188-1.338813 8.492188-3.507812l-7.492188-7.492188h-9z" opacity=".3"/>
 <path d="m40.492188 7.5078125-7.492188 7.4921875v18l7.492188 7.492188c2.168999-2.169 3.507812-5.168188 3.507812-8.492188v-16c0-3.324-1.338813-6.3231875-3.507812-8.4921875z" opacity=".15"/>
 <path d="m7.5078125 7.5078125c-2.169 2.169-3.5078125 5.1681875-3.5078125 8.4921875v16c0 3.324 1.3388125 6.323188 3.5078125 8.492188l7.4921875-7.492188v-18z" opacity=".15"/>
 <rect x="10" y="11" width="28" height="28" rx="6" opacity=".2"/>
 <rect x="10" y="10" width="28" height="28" rx="6" fill="#eceeeb"/>
 <path d="m16 4c-6.648 0-12 5.352-12 12v1c0-6.648 5.352-12 12-12h16c6.648 0 12 5.352 12 12v-1c0-6.648-5.352-12-12-12z" fill="#fff" opacity=".2"/>
 <path d="m15 15v18h4v-7h10v7h4v-18h-4v7h-10v-7z" fill="#4f4f4f"/>
</svg>

<svg xmlns="http://www.w3.org/2000/svg" width="48" height="48" version="1">
 <rect style="opacity:0.2" width="40" height="40" x="4" y="5" rx="12" ry="12"/>
 <rect style="fill:#ff6363" width="40" height="40" x="4" y="4" rx="12" ry="12"/>
 <path style="opacity:0.3" d="M 15,33 7.5078125,40.492188 C 9.6768125,42.661187 12.676,44 16,44 h 8 8 c 3.324,0 6.323188,-1.338813 8.492188,-3.507812 L 33,33 h -9 z"/>
 <path style="opacity:0.15" d="M 40.492188 7.5078125 L 33 15 L 33 24 L 33 33 L 40.492188 40.492188 C 42.661187 38.323188 44 35.324 44 32 L 44 16 C 44 12.676 42.661187 9.6768125 40.492188 7.5078125 z"/>
 <path style="opacity:0.15" d="M 7.5078125 7.5078125 C 5.3388125 9.6768125 4 12.676 4 16 L 4 24 L 4 32 C 4 35.324 5.3388125 38.323188 7.5078125 40.492188 L 15 33 L 15 24 L 15 15 L 7.5078125 7.5078125 z"/>
 <rect style="opacity:0.2" width="28" height="28" x="10" y="11" rx="6" ry="6"/>
 <rect style="fill:#eceeeb" width="28" height="28" x="10" y="10" rx="6" ry="6"/>
 <path style="opacity:0.2;fill:#ffffff" d="M 16 4 C 9.352 4 4 9.352 4 16 L 4 17 C 4 10.352 9.352 5 16 5 L 32 5 C 38.648 5 44 10.352 44 17 L 44 16 C 44 9.352 38.648 4 32 4 L 16 4 z"/>
 <path style="fill:#4f4f4f" d="M 15 15 L 15 22 L 15 26 L 15 33 L 19 33 L 19 26 L 29 26 L 29 33 L 33 33 L 33 26 L 33 22 L 33 15 L 29 15 L 29 22 L 19 22 L 19 15 L 15 15 z"/>
</svg>
